src/icons/Download/download.svg

<svg
      height="24px"
      version="1.1"
      viewBox="0 0 24 24"
      width="24px"
      xmlns="http://www.w3.org/2000/svg"
    >
      <g
      >
        <path
          d="M21,16 C21.5522847,16 22,16.4477153 22,17 L22,20 C22,21.6568542 20.6568542,23 19,23 L5,23 C3.34314575,23 2,21.6568542 2,20 L2,17 C2,16.4477153 2.44771525,16 3,16 C3.55228475,16 4,16.4477153 4,17 L4,20 C4,20.5522847 4.44771525,21 5,21 L19,21 C19.5522847,21 20,20.5522847 20,20 L20,17 C20,16.4477153 20.4477153,16 21,16 Z M12,1 C12.5522847,1 13,1.44771525 13,2 L13,13.585 L15.2928932,11.2928932 C15.6533772,10.9324093 16.2206082,10.9046797 16.6128994,11.2097046 L16.7071068,11.2928932 C17.0976311,11.6834175 17.0976311,12.3165825 16.7071068,12.7071068 L12.7071068,16.7071068 C12.6786405,16.7355731 12.6484659,16.7623312 12.6167501,16.787214 C12.6098424,16.7927155 12.602603,16.7982466 12.5953066,16.8036654 C12.5711307,16.8215099 12.546275,16.8382813 12.5206602,16.8539326 C12.5086131,16.8613931 12.4963944,16.8685012 12.4840621,16.8753288 C12.4642939,16.8862061 12.4438914,16.8966234 12.4230991,16.9063462 C12.4060985,16.914321 12.3887956,16.9218036 12.371336,16.9287745 C12.3515792,16.9366843 12.3317977,16.9438775 12.3117364,16.9504533 C12.2968513,16.9552713 12.2814633,16.9599023 12.265993,16.9641549 C12.2444365,16.9701664 12.2227461,16.9753602 12.2007941,16.9798348 C12.1833753,16.9832978 12.165949,16.9863719 12.1484669,16.9889822 C12.1003621,16.9962388 12.0506203,17 12,17 L12.0852242,16.996384 C12.0679231,16.997855 12.050591,16.9988772 12.0332468,16.9994506 L12,17 C11.9888734,17 11.9777892,16.9998183 11.9667503,16.9994576 C11.9497336,16.9989053 11.9317345,16.9978436 11.9137692,16.9962979 C11.892114,16.9944666 11.8714753,16.9920328 11.8510388,16.9889807 C11.834051,16.9863719 11.8166247,16.9832978 11.7992742,16.9797599 C11.7772539,16.9753602 11.7555635,16.9701664 11.7341604,16.964279 C11.7185367,16.9599023 11.7031487,16.9552713 11.6878575,16.9502619 C11.6682023,16.9438775 11.6484208,16.9366843 11.6289415,16.928896 C11.6112044,16.9218036 11.5939015,16.914321 11.5767785,16.9063266 C11.5561086,16.8966234 11.5357061,16.8862061 11.515723,16.8751242 C11.5036056,16.8685012 11.4913869,16.8613931 11.4792912,16.8540045 C11.453725,16.8382813 11.4288693,16.8215099 11.4048407,16.8036865 C11.3656744,16.774687 11.3282873,16.7425008 11.2928932,16.7071068 L11.3832499,16.787214 C11.3515341,16.7623312 11.3213595,16.7355731 11.2928932,16.7071068 L7.29289322,12.7071068 C6.90236893,12.3165825 6.90236893,11.6834175 7.29289322,11.2928932 C7.68341751,10.9023689 8.31658249,10.9023689 8.70710678,11.2928932 L11,13.585 L11,2 C11,1.48716416 11.3860402,1.06449284 11.8833789,1.00672773 Z"
          fill="currentColor"
        ></path>
      </g>
    </svg>

<svg xmlns="http://www.w3.org/2000/svg" width="24" height="24" viewBox="0 0 24 24"><path fill="currentColor" d="M21 16a1 1 0 0 1 1 1v3a3 3 0 0 1-3 3H5a3 3 0 0 1-3-3v-3a1 1 0 0 1 2 0v3a1 1 0 0 0 1 1h14a1 1 0 0 0 1-1v-3a1 1 0 0 1 1-1M12 1a1 1 0 0 1 1 1v11.585l2.293-2.292a1 1 0 0 1 1.32-.083l.094.083a1 1 0 0 1 0 1.414l-4 4A1 1 0 0 1 12 17l.085-.004-.052.003L12 17a1 1 0 0 1-.52-.146 1 1 0 0 1-.187-.147l.09.08a1 1 0 0 1-.09-.08l-4-4a1 1 0 0 1 1.414-1.414L11 13.585V2a1 1 0 0 1 .883-.993Z"/></svg>
